status/symbolic/network-cellular-gprs-symbolic.svg

<svg enable-background="new" height="16" width="16" xmlns="http://www.w3.org/2000/svg">
  <path d="m2.9998.99998s-2 0-2 2.0625v9.9375c0 2 2 2 2 2h10c2 0 2-2 2-2v-10s0-2-2-2zm3.0002 2.00002h4c2 0 2.052216 2.3514242 2 2v1h-2v-1h-4v6h4v-1h-2s0 0 0-1 0-1 0-1h4v1.03125 1.96875s0 2-2 2h-4s-2 0-2-2v-6c0-2 2-2 2-2z" fill="#bebebe" transform="matrix(.86428572 0 0 .86428572 1.13588892 1.03573564)" />
</svg>

<?xml version="1.0" encoding="UTF-8" standalone="no"?>
<svg
   xmlns:osb="http://www.openswatchbook.org/uri/2009/osb"
   xmlns:dc="http://purl.org/dc/elements/1.1/"
   xmlns:cc="http://creativecommons.org/ns#"
   xmlns:rdf="http://www.w3.org/1999/02/22-rdf-syntax-ns#"
   xmlns:svg="http://www.w3.org/2000/svg"
   xmlns="http://www.w3.org/2000/svg"
   xmlns:sodipodi="http://sodipodi.sourceforge.net/DTD/sodipodi-0.dtd"
   xmlns:inkscape="http://www.inkscape.org/namespaces/inkscape"
   height="16"
   version="1.1"
   width="16"
   enable-background="new"
   id="svg4141"
   inkscape:version="0.91 r13725"
   sodipodi:docname="network-cellular-gprs-symbolic.svg">
  <sodipodi:namedview
     pagecolor="#ffffff"
     bordercolor="#666666"
     borderopacity="1"
     objecttolerance="10"
     gridtolerance="10"
     guidetolerance="10"
     inkscape:pageopacity="0"
     inkscape:pageshadow="2"
     inkscape:window-width="640"
     inkscape:window-height="480"
     id="namedview4152"
     showgrid="false"
     inkscape:zoom="41.1875"
     inkscape:cx="3.6783005"
     inkscape:cy="8"
     inkscape:current-layer="layer9" />
  <metadata
     id="metadata90">
    <rdf:RDF>
      <cc:Work
         rdf:about="">
        <dc:format>image/svg+xml</dc:format>
        <dc:type
           rdf:resource="http://purl.org/dc/dcmitype/StillImage" />
      </cc:Work>
    </rdf:RDF>
  </metadata>
  <defs
     id="defs7386">
    <linearGradient
       id="linearGradient5606"
       osb:paint="solid">
      <stop
         id="stop5608" />
    </linearGradient>
  </defs>
  <g
     inkscape:groupmode="layer"
     id="layer9"
     inkscape:label="status"
     transform="translate(-261.0002,283)">
    <g
       id="layer9-8"
       transform="matrix(0.86428572,0,0,0.86428572,209.41466,-486.79998)"
       style="fill:#bebebe">
      <path
         inkscape:connector-curvature="0"
         d="m 2.9998,0.99998 c 0,0 -2,0 -2,2.0625 l 0,9.9375 c 0,2 2,2 2,2 l 10,0 c 2,0 2,-2 2,-2 l 0,-10 c 0,0 0,-2 -2,-2 z M 6,3 10,3 c 2,0 2.052216,2.3514242 2,2 l 0,1 -2,0 0,-1 -4,0 0,6 4,0 0,-1 -2,0 C 8,10 8,10 8,9 8,8 8,8 8,8 l 4,0 c 0,0 0,1 0,1.03125 L 12,11 c 0,0 0,2 -2,2 L 6,13 C 6,13 4,13 4,11 L 4,5 C 4,3 6,3 6,3 Z"
         id="rect7011"
         sodipodi:nodetypes="csscscccccccccccccccsccccccccc"
         transform="translate(61,237)"
         style="color:#bebebe" />
    </g>
  </g>
</svg>
